T: Dornoch Links
M: 4/4
L: 1/8
K: Amaj
|:af|eAAB c2 BA|e2 A2 Aaaf|eAAB c2 BA|c2 B2 B2 Ac|
eAAB c3 B|ABce a3 f|e3f ec Ac|B2 A2 A2:|
|:(3Ace|a3a afea|f3e faaf|e3f ecAB|c2 B2 B2 (3Ace|
a3a afea|fece faaf|e3f ecAc|B2 A2 A2:|
